X: 139037
T: SKIVER THE QUILT
Q: "Irish Jig."
R: Jig.
%R: jig
B: James Kerr "Merry Melodies" v.1 p.39 s.0 #37
Z: 2016 John Chambers <jc:trillian.mit.edu>
M: 6/8
L: 1/8
K: Em
B/d/ |\
e3 edB | d3 dBd | e3 edB | dBA ABd |\
e3 edB | ded def | g3 geg | dBA A2 :|
|: uB |\
G3 BGB | g3 gab | G3 BGB | dBA uA2uB |\
GAG BGB | vg2vg gab | agf efe | dBA A2 :|

%%sep 1 1 500
%%sep 1 1 500

